X:1
T:Nice Work If You Can Get It
C:George & Ira Gershwin
L:1/4
M:C
I:linebreak $
K:G
"B7" B c"Bb7" c B |"A7" A B"Ab7" z2 |"G6" G A"C7" A G |"A7" F2"A#o" z2 |$
"Bm" D2"Em" E/D/ E/G/ |"Am" A/ B3/2"Bm" z/ D/ E/G/Ox///||"Am" A/ B3/2"D7" G G |"G6" G2 z2 :|$
"Em" z/ B G/"Em6" B G |"Gm" ^A2"C7" G2 |"Em" B/B/B,/B,/"EmM" E G |"Em" F2"Eb7" z2 |$
"Dm6" z/ A F/"Bø" A F |"Em" A2"A7" A A/B/ |"Am" d d"Bm" d/e/ B |
"Cm" ^A2"D+""_D.C. al Coda" z2 ||$Ox/"F7" A/B/ z"E7" z2 |"Am" d B"D7" G E |"G6" G4 | z4 |]

